!!!OTL: Marschlied.
!!!OTL-incipit: HEUTE WOLLEN WIR MARSCHIEREN
!!!COM: Volksweise
!!!ARE: Europa, Mitteleuropa, Deutschland
!!!SCT: F0375
!!!TXL: @@DE
!!!YEM: Copyright 1995, estate of Helmut Schaffrath.
**kern	**text
*ICvox	*
*M2/4	*
*k[f#]	*
*G:	*
=1	=1
!LO:TX:a:t=Munter.	!
{8d	1._Heu-
8g	-te
8g	wol-
8g	-len
=2	=2
(16gL	wir
16f#J)	.
(16gL	mar-
16aJ)	.
8b/	-ſchi-
8g}	-ren
=3	=3
{8dd	und
8a	im
8a	Ge-
8g	-hen
=4	=4
8f#	uns
8e	pro-
8f#	-bie-
8d}	-ren,
=5	=5
{8ee	wer
8cc	am
8cc	be-
8cc	-ſten
=6	=6
(16ccL	ſchrei-
16bJ)	.
(16ccL	-ten
16ddJ)	.
4ee}	kann,
=7	=7
{8dd	die-
8b	-ſen
8b	ſtel-
8b	-len
=8	=8
(16bL	wir
16aJ)	.
(16bL	vor-
16ccJ)	.
4dd}	-an;
=9	=9
{8.a	denn
16b/	der
8cc	ſoll
8f#	uns
=10	=10
4a	füh-
8g	-ren.
8r}	.
=11	=11
{8ee	wer
8cc	am
8cc	be-
8cc	-ſten
=12	=12
16cc	ſchrei-
16b	.
16cc	-ten
16dd	.
4ee}	kann,
=13	=13
{8dd	die-
8b	-ſen
8b	ſtel-
8b	-len
=14	=14
16b	wir
16a	.
16b	vor-
16cc	.
4dd}	-an;
=15	=15
{8.a	denn
16b	der
8cc	ſoll
8f#	uns
=16	=16
4a	füh-
8g	-ren.
8r}	.
==	==
!!!AGN: Jugend - Lied, Wander -, Marsch - Lied
!!!ONB: ESAC (Essen Associative Code) Database: FINK
!!!AMT: simple duple
!!!AIN: vox
!!!EED: Helmut Schaffrath
!!!EEV: 1.0
!!Text: Bittkow
!!!source: Musikalischer Hausschatz der Deutschen. Eine Sammlung von über 1000 Liedern und Gesängen mit Singstimmen und Klavierbegleitung. Leipzig, Litterarisches Verlags-Haus.
!!!page: 223
!!!ENC: Anna Maria Matuszewska
!!!EEV: 2025/03/14
*-	*-
